icons/fill.svg

<?xml version="1.0" encoding="UTF-8" standalone="no"?>
<svg
   xmlns:dc="http://purl.org/dc/elements/1.1/"
   xmlns:cc="http://creativecommons.org/ns#"
   xmlns:rdf="http://www.w3.org/1999/02/22-rdf-syntax-ns#"
   xmlns:svg="http://www.w3.org/2000/svg"
   xmlns="http://www.w3.org/2000/svg"
   id="svg4"
   viewBox="0 0 50 50"
   version="1.1"
   width="50"
   height="50">
  <metadata
     id="metadata10">
    <rdf:RDF>
      <cc:Work
         rdf:about="">
        <dc:format>image/svg+xml</dc:format>
        <dc:type
           rdf:resource="http://purl.org/dc/dcmitype/StillImage" />
        <dc:title></dc:title>
      </cc:Work>
    </rdf:RDF>
  </metadata>
  <defs
     id="defs8" />
  <path
     id="path885"
     d="M 8.8398438,4.4511719 C 8.4370116,4.4145508 7.96875,4.53125 7.5,5 L 5,7.5 c 0,0 -1.25,1.25 0,2.5 l 5,5 -6.25,6.25 c -3.750000050000004,3.75 0,7.5 0,7.5 l 12.5,12.5 c 3.75,3.75 7.5,0 7.5,0 L 40,25 c 1.25,-1.25 0,-2.5 0,-2.5 L 22.5,5 C 22.03125,4.53125 21.562988,4.4145508 21.160156,4.4511719 20.48877,4.512207 20,5 20,5 L 15,10 10,5 C 10,5 9.5112304,4.512207 8.8398438,4.4511719 Z M 21.25,10 35,23.75 33.75,25 H 7.5 v -1.25 l 5.625,-5.625 3.125,3.125 c 0,0 1.25,1.25 2.5,0 l 2.5,-2.5 c 0,0 1.25,-1.25 0,-2.5 L 18.125,13.125 Z M 40,31.25 c 0,0 -3.75,5 -3.75,8.75 0,0 0,3.75 3.75,3.75 3.75,0 3.75,-3.75 3.75,-3.75 0,-3.75 -3.75,-8.75 -3.75,-8.75 z" />
</svg>

<?xml version="1.0" encoding="UTF-8"?>
<svg width="50" height="50" version="1.1" viewBox="0 0 50 50" xmlns="http://www.w3.org/2000/svg">
<path d="m8.8398 4.4512c-0.40283-0.036621-0.87109 0.080078-1.3398 0.54883l-2.5 2.5s-1.25 1.25 0 2.5l5 5-6.25 6.25c-3.75 3.75 0 7.5 0 7.5l12.5 12.5c3.75 3.75 7.5 0 7.5 0l16.25-16.25c1.25-1.25 0-2.5 0-2.5l-17.5-17.5c-0.46875-0.46875-0.93701-0.58545-1.3398-0.54883-0.67139 0.061035-1.1602 0.54883-1.1602 0.54883l-5 5-5-5s-0.48877-0.48779-1.1602-0.54883zm12.41 5.5488 13.75 13.75-1.25 1.25h-26.25v-1.25l5.625-5.625 3.125 3.125s1.25 1.25 2.5 0l2.5-2.5s1.25-1.25 0-2.5l-3.125-3.125zm18.75 21.25s-3.75 5-3.75 8.75c0 0 0 3.75 3.75 3.75s3.75-3.75 3.75-3.75c0-3.75-3.75-8.75-3.75-8.75z"/>
</svg>
